Sources/Octicons.swift/Resources/Media.xcassets/file-zip-24.imageset/file-zip-24.svg

<svg xmlns="http://www.w3.org/2000/svg" viewBox="0 0 24 24" width="24" height="24">  <path d="M5 2.5C4.72386 2.5 4.5 2.72386 4.5 3V21C4.5 21.2761 4.72386 21.5 5 21.5H6.75C7.16421 21.5 7.5 21.8358 7.5 22.25C7.5 22.6642 7.16421 23 6.75 23H5C3.89543 23 3 22.1046 3 21V3C3 1.89543 3.89543 1 5 1H14.9822C15.5127 1 16.0214 1.21071 16.3964 1.58579L20.4142 5.60355C20.7893 5.97863 21 6.48733 21 7.01777V21C21 22.1046 20.1046 23 19 23H16.25C15.8358 23 15.5 22.6642 15.5 22.25C15.5 21.8358 15.8358 21.5 16.25 21.5H19C19.2761 21.5 19.5 21.2761 19.5 21V7.01777C19.5 6.88516 19.4473 6.75798 19.3536 6.66421L15.3358 2.64645C15.242 2.55268 15.1148 2.5 14.9822 2.5H5Z"></path>
  <path d="M11.5 15.75C11.5 15.3358 11.8358 15 12.25 15H13.25C13.6642 15 14 15.3358 14 15.75C14 16.1642 13.6642 16.5 13.25 16.5H12.25C11.8358 16.5 11.5 16.1642 11.5 15.75Z"></path>
  <path d="M12.25 12C11.8358 12 11.5 12.3358 11.5 12.75C11.5 13.1642 11.8358 13.5 12.25 13.5H13.25C13.6642 13.5 14 13.1642 14 12.75C14 12.3358 13.6642 12 13.25 12H12.25Z"></path>
  <path d="M11.5 9.75C11.5 9.33579 11.8358 9 12.25 9H13.25C13.6642 9 14 9.33579 14 9.75C14 10.1642 13.6642 10.5 13.25 10.5H12.25C11.8358 10.5 11.5 10.1642 11.5 9.75Z"></path>
  <path d="M12.25 6C11.8358 6 11.5 6.33579 11.5 6.75C11.5 7.16421 11.8358 7.5 12.25 7.5H13.25C13.6642 7.5 14 7.16421 14 6.75C14 6.33579 13.6642 6 13.25 6H12.25Z"></path>
  <path d="M11.5 3.75C11.5 3.33579 11.8358 3 12.25 3H13.25C13.6642 3 14 3.33579 14 3.75C14 4.16421 13.6642 4.5 13.25 4.5H12.25C11.8358 4.5 11.5 4.16421 11.5 3.75Z"></path>
  <path d="M9.75 13.5C9.33579 13.5 9 13.8358 9 14.25C9 14.6642 9.33579 15 9.75 15H10.75C11.1642 15 11.5 14.6642 11.5 14.25C11.5 13.8358 11.1642 13.5 10.75 13.5H9.75Z"></path>
  <path d="M9 11.25C9 10.8358 9.33579 10.5 9.75 10.5H10.75C11.1642 10.5 11.5 10.8358 11.5 11.25C11.5 11.6642 11.1642 12 10.75 12H9.75C9.33579 12 9 11.6642 9 11.25Z"></path>
  <path d="M9.75 7.5C9.33579 7.5 9 7.83579 9 8.25C9 8.66421 9.33579 9 9.75 9H10.75C11.1642 9 11.5 8.66421 11.5 8.25C11.5 7.83579 11.1642 7.5 10.75 7.5H9.75Z"></path>
  <path d="M9 5.25C9 4.83579 9.33579 4.5 9.75 4.5H10.75C11.1642 4.5 11.5 4.83579 11.5 5.25C11.5 5.66421 11.1642 6 10.75 6H9.75C9.33579 6 9 5.66421 9 5.25Z"></path>
  <path fill-rule="evenodd" clip-rule="evenodd" d="M11 17C9.89543 17 9 17.8954 9 19V23.25C9 23.6642 9.33579 24 9.75 24H13.25C13.6642 24 14 23.6642 14 23.25V19C14 17.8954 13.1046 17 12 17H11ZM10.5 19C10.5 18.7239 10.7239 18.5 11 18.5H12C12.2761 18.5 12.5 18.7239 12.5 19V22.5H10.5V19Z"></path></svg>

<svg xmlns="http://www.w3.org/2000/svg" width="24" height="24" viewBox="0 0 24 24"><path d="M5 2.5a.5.5 0 0 0-.5.5v18a.5.5 0 0 0 .5.5h1.75a.75.75 0 0 1 0 1.5H5a2 2 0 0 1-2-2V3a2 2 0 0 1 2-2h9.982a2 2 0 0 1 1.414.586l4.018 4.018A2 2 0 0 1 21 7.018V21a2 2 0 0 1-2 2h-2.75a.75.75 0 0 1 0-1.5H19a.5.5 0 0 0 .5-.5V7.018a.5.5 0 0 0-.146-.354l-4.018-4.018a.5.5 0 0 0-.354-.146H5Z"/><path d="M11.5 15.75a.75.75 0 0 1 .75-.75h1a.75.75 0 0 1 0 1.5h-1a.75.75 0 0 1-.75-.75Zm.75-3.75a.75.75 0 0 0 0 1.5h1a.75.75 0 0 0 0-1.5h-1Zm-.75-2.25a.75.75 0 0 1 .75-.75h1a.75.75 0 0 1 0 1.5h-1a.75.75 0 0 1-.75-.75ZM12.25 6a.75.75 0 0 0 0 1.5h1a.75.75 0 0 0 0-1.5h-1Zm-.75-2.25a.75.75 0 0 1 .75-.75h1a.75.75 0 0 1 0 1.5h-1a.75.75 0 0 1-.75-.75ZM9.75 13.5a.75.75 0 0 0 0 1.5h1a.75.75 0 0 0 0-1.5h-1ZM9 11.25a.75.75 0 0 1 .75-.75h1a.75.75 0 0 1 0 1.5h-1a.75.75 0 0 1-.75-.75Zm.75-3.75a.75.75 0 0 0 0 1.5h1a.75.75 0 0 0 0-1.5h-1ZM9 5.25a.75.75 0 0 1 .75-.75h1a.75.75 0 0 1 0 1.5h-1A.75.75 0 0 1 9 5.25ZM11 17h1a2 2 0 0 1 2 2v4.25a.75.75 0 0 1-.75.75h-3.5a.75.75 0 0 1-.75-.75V19a2 2 0 0 1 2-2Zm-.5 2v3.5h2V19a.5.5 0 0 0-.5-.5h-1a.5.5 0 0 0-.5.5Z"/></svg>
